mr/mail.svg

<svg viewBox="0 0 512 512" xmlns="http://www.w3.org/2000/svg" height="1em" width="1em">
  <path d="M64 128q0-15 9-23 8-9 23-9h320q15 0 24 9 8 8 8 23v16L256 272 64 144v-16Zm192 200 192-128v184q0 32-32 32H96q-32 0-32-32V200l192 128Z"/>
</svg>

<svg viewBox="0 0 512 512" xmlns="http://www.w3.org/2000/svg" height="1em" width="1em">
  <path d="M64 128Q64 113 73 105 81 96 96 96L416 96Q431 96 440 105 448 113 448 128L448 144 256 272 64 144 64 128ZM256 328L448 200 448 384Q448 416 416 416L96 416Q64 416 64 384L64 200 256 328Z"/>
</svg>
